cssgg/track.svg

<svg
  width="24"
  height="24"
  viewBox="0 0 24 24"
  fill="none"
  xmlns="http://www.w3.org/2000/svg"
>
  <path
    d="M12 15C13.6569 15 15 13.6569 15 12C15 10.3431 13.6569 9 12 9C10.3431 9 9 10.3431 9 12C9 13.6569 10.3431 15 12 15Z"
    fill="currentColor"
  />
  <path
    fill-rule="evenodd"
    clip-rule="evenodd"
    d="M12 3C12.5523 3 13 3.44772 13 4V5.07089C16.0657 5.5094 18.4906 7.93431 18.9291 11H20C20.5523 11 21 11.4477 21 12C21 12.5523 20.5523 13 20 13H18.9291C18.4906 16.0657 16.0657 18.4906 13 18.9291V20C13 20.5523 12.5523 21 12 21C11.4477 21 11 20.5523 11 20V18.9291C7.93431 18.4906 5.5094 16.0657 5.07089 13H4C3.44772 13 3 12.5523 3 12C3 11.4477 3.44772 11 4 11H5.07089C5.5094 7.93431 7.93431 5.5094 11 5.07089V4C11 3.44772 11.4477 3 12 3ZM7 12C7 9.23858 9.23858 7 12 7C14.7614 7 17 9.23858 17 12C17 14.7614 14.7614 17 12 17C9.23858 17 7 14.7614 7 12Z"
    fill="currentColor"
  />
</svg>

<svg viewBox="0 0 24 24" xmlns="http://www.w3.org/2000/svg"><g><path d="M12 15c1.65 0 3-1.35 3-3 0-1.66-1.35-3-3-3 -1.66 0-3 1.34-3 3 0 1.65 1.34 3 3 3Z"/><path fill-rule="evenodd" d="M12 3c.55 0 1 .44 1 1v1.07c3.06.43 5.49 2.86 5.92 5.92h1.07c.55 0 1 .44 1 1 0 .55-.45 1-1 1h-1.08c-.44 3.06-2.87 5.49-5.93 5.92v1.07c0 .55-.45 1-1 1 -.56 0-1-.45-1-1V18.9c-3.07-.44-5.5-2.87-5.93-5.93H3.97c-.56 0-1-.45-1-1 0-.56.44-1 1-1h1.07c.43-3.07 2.86-5.5 5.92-5.93V3.96c0-.56.44-1 1-1Zm-5 9c0-2.77 2.23-5 5-5 2.76 0 5 2.23 5 5 0 2.76-2.24 5-5 5 -2.77 0-5-2.24-5-5Z"/></g></svg>
